places/48/user-desktop.svg

<?xml version="1.0" encoding="UTF-8" standalone="no"?>
<!-- Created with Inkscape (http://www.inkscape.org/) -->

<svg
   xmlns:svg="http://www.w3.org/2000/svg"
   xmlns="http://www.w3.org/2000/svg"
   xmlns:xlink="http://www.w3.org/1999/xlink"
   version="1.1"
   width="48"
   height="48"
   id="svg3861">
  <defs
     id="defs3863">
    <radialGradient
       cx="605.71429"
       cy="486.64789"
       r="117.14286"
       fx="605.71429"
       fy="486.64789"
       id="radialGradient10039"
       xlink:href="#linearGradient5060"
       gradientUnits="userSpaceOnUse"
       gradientTransform="matrix(-2.774389,0,0,1.969706,112.7623,-872.8854)" />
    <linearGradient
       id="linearGradient5060">
      <stop
         id="stop5062"
         style="stop-color:black;stop-opacity:1"
         offset="0" />
      <stop
         id="stop5064"
         style="stop-color:black;stop-opacity:0"
         offset="1" />
    </linearGradient>
    <radialGradient
       cx="605.71429"
       cy="486.64789"
       r="117.14286"
       fx="605.71429"
       fy="486.64789"
       id="radialGradient10037"
       xlink:href="#linearGradient5060"
       gradientUnits="userSpaceOnUse"
       gradientTransform="matrix(2.774389,0,0,1.969706,-1891.633,-872.8854)" />
    <linearGradient
       id="linearGradient5048">
      <stop
         id="stop5050"
         style="stop-color:black;stop-opacity:0"
         offset="0" />
      <stop
         id="stop5056"
         style="stop-color:black;stop-opacity:1"
         offset="0.5" />
      <stop
         id="stop5052"
         style="stop-color:black;stop-opacity:0"
         offset="1" />
    </linearGradient>
    <linearGradient
       x1="302.85715"
       y1="366.64789"
       x2="302.85715"
       y2="609.50507"
       id="linearGradient10035"
       xlink:href="#linearGradient5048"
       gradientUnits="userSpaceOnUse"
       gradientTransform="matrix(2.774389,0,0,1.969706,-1892.179,-872.8854)" />
    <linearGradient
       id="linearGradient3390">
      <stop
         id="stop3392"
         style="stop-color:#425e7b;stop-opacity:1"
         offset="0" />
      <stop
         id="stop3394"
         style="stop-color:#7a91a7;stop-opacity:1"
         offset="1" />
    </linearGradient>
    <linearGradient
       x1="39.964977"
       y1="40.569199"
       x2="-0.022119235"
       y2="2.9977107"
       id="linearGradient2536"
       xlink:href="#linearGradient3390"
       gradientUnits="userSpaceOnUse"
       gradientTransform="matrix(0.9574517,0,0,0.8546317,1.0211781,6.4783667)" />
    <linearGradient
       id="linearGradient7012-661-145-733-759-865-745">
      <stop
         id="stop2699"
         style="stop-color:#9cbbd9;stop-opacity:1"
         offset="0" />
      <stop
         id="stop2701"
         style="stop-color:#5c82ab;stop-opacity:1"
         offset="1" />
    </linearGradient>
    <radialGradient
       cx="14.549862"
       cy="17.358982"
       r="23"
       fx="14.549862"
       fy="17.358982"
       id="radialGradient3312"
       xlink:href="#linearGradient7012-661-145-733-759-865-745"
       gradientUnits="userSpaceOnUse"
       gradientTransform="matrix(2.3690227e-8,1.028111,-1.3196495,0,36.193484,4.2905543)" />
    <linearGradient
       id="linearGradient3282">
      <stop
         id="stop3284"
         style="stop-color:black;stop-opacity:1"
         offset="0" />
      <stop
         id="stop3286"
         style="stop-color:black;stop-opacity:0"
         offset="1" />
    </linearGradient>
    <linearGradient
       x1="24.682861"
       y1="11.378383"
       x2="24.682861"
       y2="13.523027"
       id="linearGradient3694"
       xlink:href="#linearGradient3282"
       gradientUnits="userSpaceOnUse"
       gradientTransform="matrix(0.956275,0,0,0.7020128,1.0550743,6.51223)" />
    <linearGradient
       id="linearGradient2446-733">
      <stop
         id="stop3464"
         style="stop-color:white;stop-opacity:1"
         offset="0" />
      <stop
         id="stop3466"
         style="stop-color:#dbdbdb;stop-opacity:1"
         offset="1" />
    </linearGradient>
    <linearGradient
       x1="33.579403"
       y1="6.4673662"
       x2="33.579403"
       y2="12.53143"
       id="linearGradient3691"
       xlink:href="#linearGradient2446-733"
       gradientUnits="userSpaceOnUse"
       gradientTransform="matrix(0.7965302,0,0,0.6559082,-1.6636299,5.7580009)" />
    <linearGradient
       id="linearGradient8265-821-176-38-919-66-249">
      <stop
         id="stop2687"
         style="stop-color:white;stop-opacity:1"
         offset="0" />
      <stop
         id="stop2689"
         style="stop-color:white;stop-opacity:0"
         offset="1" />
    </linearGradient>
    <linearGradient
       x1="16.626165"
       y1="15.298182"
       x2="20.054544"
       y2="24.627615"
       id="linearGradient3704"
       xlink:href="#linearGradient8265-821-176-38-919-66-249"
       gradientUnits="userSpaceOnUse" />
    <linearGradient
       id="linearGradient2238">
      <stop
         id="stop2240"
         style="stop-color:white;stop-opacity:1"
         offset="0" />
      <stop
         id="stop2242"
         style="stop-color:white;stop-opacity:0"
         offset="1" />
    </linearGradient>
    <linearGradient
       x1="2.8828752"
       y1="2.9345543"
       x2="30.128326"
       y2="31.212822"
       id="linearGradient3706"
       xlink:href="#linearGradient2238"
       gradientUnits="userSpaceOnUse"
       gradientTransform="matrix(0.9575159,0,0,0.8504632,1.0196333,7.3692566)" />
  </defs>
  <g
     id="layer1">
    <g
       transform="matrix(0.02362121,0,0,0.02008221,45.009548,40.419858)"
       id="g5022">
      <rect
         width="1339.6335"
         height="478.35718"
         x="-1559.2523"
         y="-150.69685"
         id="rect2512"
         style="opacity:0.40206185;fill:url(#linearGradient10035);fill-opacity:1;fill-rule:nonzero;stroke:none;stroke-width:1;marker:none;visibility:visible;display:inline;overflow:visible" />
      <path
         d="m -219.61876,-150.68038 c 0,0 0,478.33079 0,478.33079 142.874166,0.90045 345.40022,-107.16966 345.40014,-239.196175 0,-132.026537 -159.436816,-239.134595 -345.40014,-239.134615 z"
         id="path2514"
         style="opacity:0.40206185;fill:url(#radialGradient10037);fill-opacity:1;fill-rule:nonzero;stroke:none;stroke-width:1;marker:none;visibility:visible;display:inline;overflow:visible" />
      <path
         d="m -1559.2523,-150.68038 c 0,0 0,478.33079 0,478.33079 -142.8742,0.90045 -345.4002,-107.16966 -345.4002,-239.196175 0,-132.026537 159.4368,-239.134595 345.4002,-239.134615 z"
         id="path2516"
         style="opacity:0.40206185;fill:url(#radialGradient10039);fill-opacity:1;fill-rule:nonzero;stroke:none;stroke-width:1;marker:none;visibility:visible;display:inline;overflow:visible" />
    </g>
    <rect
       width="44.997868"
       height="34.997868"
       rx="1.7085935"
       ry="1.5711538"
       x="1.5010664"
       y="9.5010662"
       id="rect1316"
       style="fill:url(#radialGradient3312);fill-opacity:1;fill-rule:evenodd;stroke:url(#linearGradient2536);stroke-width:1.00213289;stroke-linecap:round;stroke-linejoin:round;stroke-miterlimit:4;stroke-opacity:1;stroke-dasharray:none;stroke-dashoffset:0" />
    <rect
       width="43.998333"
       height="3"
       rx="1.3278698"
       ry="0"
       x="1.9999982"
       y="13"
       id="rect1436"
       style="opacity:0.2;fill:url(#linearGradient3694);fill-opacity:1;fill-rule:evenodd;stroke:none;stroke-width:1.00000012;marker:none;visibility:visible;display:inline;overflow:visible" />
    <path
       d="m 3.4114755,10.000638 c 13.7452695,0 27.6241505,0.0085 41.3694165,0.0085 1.463558,0.149236 1.195717,0.959015 1.20609,1.907851 0.01822,1.666672 -0.02358,2.024898 0.0061,2.030373 -5.443366,0.07232 -11.99582,-0.01123 -17.441512,0.0093 -8.392169,0 -18.148025,-0.0035 -26.5401947,-0.0035 0.00777,0.01232 0.00307,-0.387482 0.00307,-2.25759 0,-0.879267 0.5032876,-1.722138 1.3970528,-1.694997 z"
       id="rect2311"
       style="fill:url(#linearGradient3691);fill-opacity:1;fill-rule:evenodd;stroke:none;stroke-width:1.00000012;marker:none;visibility:visible;display:inline;overflow:visible" />
    <path
       d="m 3.21875,5.96875 c -1.208277,0 -2.1875,0.9792231 -2.1875,2.1875 l 0,16 A 0.48127135,0.48127135 0 0 0 1.5625,24.625 l 45,-7.125 a 0.48127135,0.48127135 0 0 0 0.40625,-0.46875 l 0,-8.875 c 0,-1.2082769 -0.979223,-2.1875 -2.1875,-2.1875 l -41.5625,0 z"
       transform="matrix(1.0013605,0,0,1.0182827,-0.03265087,2.9221246)"
       id="path3333"
       style="opacity:0.2;fill:url(#linearGradient3704);fill-opacity:1;fill-rule:evenodd;stroke:none" />
    <rect
       width="43.125748"
       height="33.198151"
       rx="0.93104446"
       ry="0.85615098"
       x="2.4383025"
       y="10.325747"
       id="rect2232"
       style="opacity:0.4;fill:none;stroke:url(#linearGradient3706);stroke-width:1.00213289;stroke-linecap:round;stroke-linejoin:round;stroke-miterlimit:4;stroke-opacity:1;stroke-dasharray:none;stroke-dashoffset:0" />
  </g>
</svg>

<?xml version="1.0" encoding="UTF-8" standalone="no"?>
<!-- Created with Inkscape (http://www.inkscape.org/) -->
<svg
   xmlns:dc="http://purl.org/dc/elements/1.1/"
   xmlns:cc="http://creativecommons.org/ns#"
   xmlns:rdf="http://www.w3.org/1999/02/22-rdf-syntax-ns#"
   xmlns:svg="http://www.w3.org/2000/svg"
   xmlns="http://www.w3.org/2000/svg"
   xmlns:xlink="http://www.w3.org/1999/xlink"
   xmlns:sodipodi="http://sodipodi.sourceforge.net/DTD/sodipodi-0.dtd"
   xmlns:inkscape="http://www.inkscape.org/namespaces/inkscape"
   width="48px"
   height="48px"
   id="svg3861"
   sodipodi:version="0.32"
   inkscape:version="0.46"
   sodipodi:docname="user-desktop.svg"
   inkscape:output_extension="org.inkscape.output.svg.inkscape">
  <defs
     id="defs3863">
    <radialGradient
       r="117.14286"
       fy="486.64789"
       fx="605.71429"
       cy="486.64789"
       cx="605.71429"
       gradientTransform="matrix(-2.774389,0,0,1.969706,112.7623,-872.8854)"
       gradientUnits="userSpaceOnUse"
       id="radialGradient10039"
       xlink:href="#linearGradient5060"
       inkscape:collect="always" />
    <linearGradient
       id="linearGradient5060"
       inkscape:collect="always">
      <stop
         style="stop-color:black;stop-opacity:1;"
         id="stop5062"
         offset="0" />
      <stop
         style="stop-color:black;stop-opacity:0;"
         id="stop5064"
         offset="1" />
    </linearGradient>
    <radialGradient
       r="117.14286"
       fy="486.64789"
       fx="605.71429"
       cy="486.64789"
       cx="605.71429"
       gradientTransform="matrix(2.774389,0,0,1.969706,-1891.633,-872.8854)"
       gradientUnits="userSpaceOnUse"
       id="radialGradient10037"
       xlink:href="#linearGradient5060"
       inkscape:collect="always" />
    <linearGradient
       id="linearGradient5048">
      <stop
         style="stop-color:black;stop-opacity:0;"
         id="stop5050"
         offset="0" />
      <stop
         style="stop-color:black;stop-opacity:1;"
         id="stop5056"
         offset="0.5" />
      <stop
         style="stop-color:black;stop-opacity:0;"
         id="stop5052"
         offset="1" />
    </linearGradient>
    <linearGradient
       y2="609.50507"
       x2="302.85715"
       y1="366.64789"
       x1="302.85715"
       gradientTransform="matrix(2.774389,0,0,1.969706,-1892.179,-872.8854)"
       gradientUnits="userSpaceOnUse"
       id="linearGradient10035"
       xlink:href="#linearGradient5048"
       inkscape:collect="always" />
    <linearGradient
       inkscape:collect="always"
       id="linearGradient3390">
      <stop
         style="stop-color:#425e7b;stop-opacity:1"
         offset="0"
         id="stop3392" />
      <stop
         style="stop-color:#7a91a7;stop-opacity:1"
         offset="1"
         id="stop3394" />
    </linearGradient>
    <linearGradient
       inkscape:collect="always"
       xlink:href="#linearGradient3390"
       id="linearGradient2536"
       gradientUnits="userSpaceOnUse"
       gradientTransform="matrix(0.9574517,0,0,0.8546317,1.0211781,6.4783667)"
       x1="39.964977"
       y1="40.569199"
       x2="-0.022119235"
       y2="2.9977107" />
    <linearGradient
       id="linearGradient7012-661-145-733-759-865-745">
      <stop
         id="stop2699"
         offset="0"
         style="stop-color:#9cbbd9;stop-opacity:1;" />
      <stop
         id="stop2701"
         offset="1"
         style="stop-color:#5c82ab;stop-opacity:1;" />
    </linearGradient>
    <radialGradient
       inkscape:collect="always"
       xlink:href="#linearGradient7012-661-145-733-759-865-745"
       id="radialGradient3312"
       cx="14.549862"
       cy="17.358982"
       fx="14.549862"
       fy="17.358982"
       r="23"
       gradientTransform="matrix(2.3690227e-8,1.028111,-1.3196495,0,36.193484,4.2905543)"
       gradientUnits="userSpaceOnUse" />
    <linearGradient
       id="linearGradient3282"
       inkscape:collect="always">
      <stop
         id="stop3284"
         offset="0"
         style="stop-color:#000000;stop-opacity:1;" />
      <stop
         id="stop3286"
         offset="1"
         style="stop-color:#000000;stop-opacity:0;" />
    </linearGradient>
    <linearGradient
       inkscape:collect="always"
       xlink:href="#linearGradient3282"
       id="linearGradient3694"
       gradientUnits="userSpaceOnUse"
       gradientTransform="matrix(0.956275,0,0,0.7020128,1.0550743,6.51223)"
       x1="24.682861"
       y1="11.378383"
       x2="24.682861"
       y2="13.523027" />
    <linearGradient
       id="linearGradient2446-733">
      <stop
         style="stop-color:#ffffff;stop-opacity:1;"
         offset="0"
         id="stop3464" />
      <stop
         style="stop-color:#dbdbdb;stop-opacity:1;"
         offset="1"
         id="stop3466" />
    </linearGradient>
    <linearGradient
       inkscape:collect="always"
       xlink:href="#linearGradient2446-733"
       id="linearGradient3691"
       gradientUnits="userSpaceOnUse"
       gradientTransform="matrix(0.7965302,0,0,0.6559082,-1.6636299,5.7580009)"
       x1="33.579403"
       y1="6.4673662"
       x2="33.579403"
       y2="12.53143" />
    <linearGradient
       id="linearGradient8265-821-176-38-919-66-249"
       inkscape:collect="always">
      <stop
         id="stop2687"
         offset="0"
         style="stop-color:#ffffff;stop-opacity:1;" />
      <stop
         id="stop2689"
         offset="1"
         style="stop-color:#ffffff;stop-opacity:0;" />
    </linearGradient>
    <linearGradient
       inkscape:collect="always"
       xlink:href="#linearGradient8265-821-176-38-919-66-249"
       id="linearGradient3704"
       gradientUnits="userSpaceOnUse"
       x1="16.626165"
       y1="15.298182"
       x2="20.054544"
       y2="24.627615" />
    <linearGradient
       id="linearGradient2238"
       inkscape:collect="always">
      <stop
         style="stop-color:#ffffff;stop-opacity:1;"
         id="stop2240"
         offset="0" />
      <stop
         style="stop-color:#ffffff;stop-opacity:0;"
         id="stop2242"
         offset="1" />
    </linearGradient>
    <linearGradient
       inkscape:collect="always"
       xlink:href="#linearGradient2238"
       id="linearGradient3706"
       gradientUnits="userSpaceOnUse"
       gradientTransform="matrix(0.9575159,0,0,0.8504632,1.0196333,7.3692566)"
       x1="2.8828752"
       y1="2.9345543"
       x2="30.128326"
       y2="31.212822" />
  </defs>
  <sodipodi:namedview
     id="base"
     pagecolor="#ffffff"
     bordercolor="#666666"
     borderopacity="1.0"
     inkscape:pageopacity="0.0"
     inkscape:pageshadow="2"
     inkscape:zoom="7"
     inkscape:cx="24"
     inkscape:cy="24"
     inkscape:current-layer="layer1"
     showgrid="true"
     inkscape:grid-bbox="true"
     inkscape:document-units="px"
     inkscape:window-width="640"
     inkscape:window-height="679"
     inkscape:window-x="0"
     inkscape:window-y="24" />
  <metadata
     id="metadata3866">
    <rdf:RDF>
      <cc:Work
         rdf:about="">
        <dc:format>image/svg+xml</dc:format>
        <dc:type
           rdf:resource="http://purl.org/dc/dcmitype/StillImage" />
      </cc:Work>
    </rdf:RDF>
  </metadata>
  <g
     id="layer1"
     inkscape:label="Layer 1"
     inkscape:groupmode="layer">
    <g
       transform="matrix(2.3621214e-2,0,0,2.0082207e-2,45.009548,40.419858)"
       id="g5022">
      <rect
         id="rect2512"
         x="-1559.2523"
         y="-150.69685"
         width="1339.6335"
         height="478.35718"
         style="opacity:0.40206185;fill:url(#linearGradient10035);fill-opacity:1;fill-rule:nonzero;stroke:none;stroke-width:1;stroke-linecap:round;stroke-linejoin:miter;marker:none;marker-start:none;marker-mid:none;marker-end:none;stroke-miterlimit:4;stroke-dasharray:none;stroke-dashoffset:0;stroke-opacity:1;visibility:visible;display:inline;overflow:visible" />
      <path
         d="M -219.61876,-150.68038 C -219.61876,-150.68038 -219.61876,327.65041 -219.61876,327.65041 C -76.744594,328.55086 125.78146,220.48075 125.78138,88.454235 C 125.78138,-43.572302 -33.655436,-150.68036 -219.61876,-150.68038 z"
         id="path2514"
         style="opacity:0.40206185;fill:url(#radialGradient10037);fill-opacity:1;fill-rule:nonzero;stroke:none;stroke-width:1;stroke-linecap:round;stroke-linejoin:miter;marker:none;marker-start:none;marker-mid:none;marker-end:none;stroke-miterlimit:4;stroke-dasharray:none;stroke-dashoffset:0;stroke-opacity:1;visibility:visible;display:inline;overflow:visible"
         sodipodi:nodetypes="cccc" />
      <path
         id="path2516"
         d="M -1559.2523,-150.68038 C -1559.2523,-150.68038 -1559.2523,327.65041 -1559.2523,327.65041 C -1702.1265,328.55086 -1904.6525,220.48075 -1904.6525,88.454235 C -1904.6525,-43.572302 -1745.2157,-150.68036 -1559.2523,-150.68038 z"
         style="opacity:0.40206185;fill:url(#radialGradient10039);fill-opacity:1;fill-rule:nonzero;stroke:none;stroke-width:1;stroke-linecap:round;stroke-linejoin:miter;marker:none;marker-start:none;marker-mid:none;marker-end:none;stroke-miterlimit:4;stroke-dasharray:none;stroke-dashoffset:0;stroke-opacity:1;visibility:visible;display:inline;overflow:visible"
         sodipodi:nodetypes="cccc" />
    </g>
    <rect
       id="rect1316"
       x="1.5010664"
       y="9.5010662"
       width="44.997868"
       height="34.997868"
       ry="1.5711538"
       rx="1.7085935"
       style="fill:url(#radialGradient3312);fill-opacity:1;fill-rule:evenodd;stroke:url(#linearGradient2536);stroke-width:1.00213288999999994;stroke-linecap:round;stroke-linejoin:round;stroke-miterlimit:4;stroke-dasharray:none;stroke-dashoffset:0;stroke-opacity:1" />
    <rect
       ry="0"
       rx="1.3278698"
       y="13"
       x="1.9999982"
       height="3"
       width="43.998333"
       id="rect1436"
       style="opacity:0.20000000000000001;fill:url(#linearGradient3694);fill-opacity:1;fill-rule:evenodd;stroke:none;stroke-width:1.00000011999999994;stroke-linecap:butt;stroke-linejoin:miter;marker:none;marker-start:none;marker-mid:none;marker-end:none;stroke-miterlimit:4;stroke-dasharray:none;stroke-dashoffset:0;stroke-opacity:1;visibility:visible;display:inline;overflow:visible" />
    <path
       sodipodi:nodetypes="ccscccsc"
       id="rect2311"
       d="M 3.4114755,10.000638 C 17.156745,10.000638 31.035626,10.009178 44.780892,10.009178 C 46.24445,10.158414 45.976609,10.968193 45.986982,11.917029 C 46.005202,13.583701 45.963404,13.941927 45.993056,13.947402 C 40.54969,14.01972 33.997236,13.936171 28.551544,13.956726 C 20.159375,13.956726 10.403519,13.953225 2.0113493,13.953225 C 2.0191238,13.96554 2.0144227,13.565743 2.0144227,11.695635 C 2.0144227,10.816368 2.5177103,9.973497 3.4114755,10.000638 z"
       style="fill:url(#linearGradient3691);fill-opacity:1;fill-rule:evenodd;stroke:none;stroke-width:1.00000011999999994;stroke-linecap:butt;stroke-linejoin:miter;marker:none;marker-start:none;marker-mid:none;marker-end:none;stroke-miterlimit:4;stroke-dasharray:none;stroke-dashoffset:0;stroke-opacity:1;visibility:visible;display:inline;overflow:visible" />
    <path
       sodipodi:type="inkscape:offset"
       inkscape:radius="0.48122323"
       inkscape:original="M 3.21875 6.4375 C 2.2721892 6.4375 1.5 7.2096893 1.5 8.15625 L 1.5 24.15625 L 46.5 17.03125 L 46.5 8.15625 C 46.5 7.2096892 45.727811 6.4375 44.78125 6.4375 L 3.21875 6.4375 z "
       style="opacity:0.20000000000000001;fill:url(#linearGradient3704);fill-opacity:1;fill-rule:evenodd;stroke:none;stroke-width:1.00213288999999994;stroke-linecap:round;stroke-linejoin:round;stroke-miterlimit:4;stroke-dasharray:none;stroke-dashoffset:0;stroke-opacity:1"
       id="path3333"
       d="M 3.21875,5.96875 C 2.010473,5.96875 1.03125,6.9479731 1.03125,8.15625 L 1.03125,24.15625 C 1.0340218,24.290853 1.0930478,24.418142 1.1939998,24.507217 C 1.2949518,24.596292 1.4285991,24.63901 1.5625,24.625 L 46.5625,17.5 C 46.793979,17.463493 46.965514,17.265567 46.96875,17.03125 L 46.96875,8.15625 C 46.96875,6.9479731 45.989527,5.96875 44.78125,5.96875 L 3.21875,5.96875 z"
       transform="matrix(1.0013605,0,0,1.0182827,-3.2650874e-2,2.9221246)" />
    <rect
       id="rect2232"
       x="2.4383025"
       y="10.325747"
       width="43.125748"
       height="33.198151"
       ry="0.85615098"
       rx="0.93104446"
       style="opacity:0.40000000000000002;fill:none;fill-opacity:1;fill-rule:evenodd;stroke:url(#linearGradient3706);stroke-width:1.00213288999999994;stroke-linecap:round;stroke-linejoin:round;stroke-miterlimit:4;stroke-dasharray:none;stroke-dashoffset:0;stroke-opacity:1" />
  </g>
</svg>
